X:1
T:F  Major Timothy Swan, 1797
T:Isaac Watts, 1717 (Psalm 56)        86. 86. (C. M.)
T:Denbigh
T:Transcribed from Brownson's New Collection of Sacred Harmony, 1797.
%%score [ 1 2 3 4 ]
L:1/8
Q:1/4=120
M:4/4
K:F
V:1 treble nm="Tr." snm="Tr."
V:2 treble nm="C." snm="C."
V:3 treble-8 nm="T." snm="T."
V:4 bass nm="B." snm="B."
V:1
"^1. God  counts    the sorrows  of  his     saints,       Their   groans  af –  fect  his     ears;  Thou hast a book        for  my ________  com–plaints,""^3. Thou hast       secured  my  soul  from  death,      O           set        thy    prisoner  free!   That  heart and hand, and  life ______    and   breath,""^2. In      thee,       most  ho–ly,   just,  and   true,         I           have      re–posed my  trust;   Nor   will  I  fear        what man ______    can   do," A8 | %1
 (A3 G F2) F2 | c4 c4 | (f4 d2) c2 | A8- | A4 (3(A2 B2 c2) | d8 | (d2 B2) c2 de | f8 | %9
 (c2 f2) A2 A2 | (c3 d e2) f2 | (g3 f e2) c2 | A8 | z8 | z8 | %15
"^1.  A     bottle   for my tears, _________    A           bottle  for my  tears,   A        bottle  for  my  tears.""^2. The offspring of the dust. _________   The  offspring of  the   dust,   The  offspring of the  dust.""^3. May be employed for thee. ________    May    be employed for thee,   May be employed for thee." c4 A2 c2 | %16
 d2 d2 d4- | d4 c4 | f2 f2 d2 d2 | A4 f4 | e2 e2 c2 c2 | A8 |] %22
V:2
 F8 | (F3 G A2) F2 | G4 A4 | A4 G4 | F8 | z4 A4 | G8 | F4 G2 G2 | A8 | F4 A2 A2 | A4 A4 | %11
 (E2 C2 CA,) C2 | (D4 C4) | z8 | z8 | z8 | %16
"^1.  A        bottle for my tears, _______________              A     bottle    for         my        tears.""^2.  The   offspring of  the dust,  ___________            The  offspring  of        the        dust.""^3.  May  be em –ployed for thee, ___________           May  be  em–ployed   for        thee." A4 F2 A2 | %17
 F2 F2 (A4 | A8) | F4 F2 A2 | C4 E4 | F8 |] %22
V:3
"^1. God  counts    the sorrows  of  his     saints,       Their   groans  af –  fect  his     ears;  Thou hast a book        for  my ________  com–plaints,""^2. In      thee,       most  ho–ly,   just,  and   true,         I           have      re–posed my  trust;   Nor   will  I  fear        what man ______    can   do,""^3. Thou hast       secured  my  soul  from  death,      O           set        thy    prisoner  free!   That  heart and hand, and  life ______    and   breath," F8 | %1
 A6 A2 | G4 c4 | (A4 d2) c2 | d8 | z4 A4 | B8 | d4 B2 G2 | c8 | A4 d2 d2 | e4 c4 | A4 G4 | F8 | %13
"^1. A     bottle   for   my           tears, ________________        A    bottle  for my   tears, __________   A      bottle     for       my         tears.""^2. The offspring of  the         dust. ________________      The offspring of  the dust, __________  The  offspring of       the         dust.""^3. May be employed for         thee, ________________     May be employed for thee, __________   May be  em–ployed   for         thee." d4 B2 A2 | %14
 c4 B4 | A8- | A6 A2 | f2 f2 e2 e2 | d8 | c4 f2 c2 | A4 G4 | F8 |] %22
V:4
 F,8 | D,6 F,2 | C,4 A,,4 | (F,4 G,2) A,2 | D,8- | D,4 F,4 | G,8 | (D,2 E,F,) E,2 G,2 | F,8 | %9
 (A,2 F,2) D,2 D,2 | A,4 A,4 | C4 C,4 | F,8 | z8 | %14
"^1. A      bottle    for     my         tears, _____________          A           bottle  for my  tears,   A        bottle   for  my  tears.""^2. The  offspring  of  the         dust. ______________         The      offspring of the dust,  The  offspring of  the  dust.""^3. May  be  employed  for        thee, ______________         May     be employed for thee,  May  be  employed for thee." F,4 G,2 G,2 | %15
 A,4 A,,4 | (D,8 | C,4) A,,4 | D,2 D,2 D,2 D,2 | F,4 F,4 | C2 C2 C,2 C,2 | F,8 |] %22

